!!!COM: Beethoven
!!!OTL: 7 Variations on a Quartet by Winter 
!!!Variation: Variation 5c
**function	**harm	**kern	**kern
*M2/4	*M2/4	*staff1	*staff2
*F:	*F:	*clefG2	*clefG2
*	*	*M2/4	*M2/4
*	*	*F:	*F:
*	*	*tb16	*tb16
4T	4I	(8ccL	4r
.	.	16aJk)	.
.	.	16r	.
=	=	=271	=271
2T	2I	(8aL	2r
.	.	16fJk)	.
.	.	16r	.
.	.	(8ffL	.
.	.	16ccJk)	.
.	.	16r	.
=	=	=272	=272
4T	4V7	(4b-	16r
.	.	.	(16cLL
.	.	.	16d
.	.	.	16eJJ
4T	4I	4a)	16fLL
.	.	.	16e
.	.	.	16d
.	.	.	16cJJ)
=	=	=273	=273
8T	8V2	16eLL 16g	8B-'L
.	.	16cc	.
8T	8I6	16f	8A'J
.	.	16ccJJ	.
8T	8V43	16eLL 16b-	8G'L
.	.	16cc	.
8T	8I	16f 16a	8F'J
.	.	16ccJJ	.
=	=	=274	=274
4T	4V	(16eLL 16g	8C
.	.	16cc	.
.	.	16b	8r
.	.	16b-JJ)	.
4T	4I6	(16aLL	(8cL
.	.	16b-	.
.	.	16b	16AJk)
.	.	16ccJJ	16r
=	=	=275	=275
2T	2I	16cc#LL	(8AL
.	.	16dd	.
.	.	16ee-	16FJk)
.	.	16eeJJ	16r
.	.	16ffLL	(8fL
.	.	16gg	.
.	.	16aa	16cJk)
.	.	16ffJJ)	16r
=	=	=276	=276
4T	4V2	(16eeLL	(4B-
.	.	16cc	.
.	.	16dd	.
.	.	16eeJJ	.
4T	4I6	16ffLL	8AL
.	.	16ee	.
.	.	16dd	8A-J)
.	.	[16ccJJ	.
=	=	=277	=277
*	*	*	*^
2D	2V7/V	16ccLL])	4G	2G
.	.	16f	.	.
.	.	16b	.	.
.	.	16fJJ	.	.
.	.	16ccLL	8AL	.
.	.	16f	.	.
.	.	16dd	8BJ	.
.	.	16fJJ	.	.
*	*	*	*v	*v
=	=	=278	=278
*-	*-	*-	*-
